X:209
T:I Wonder Why You Said Goodbye
C:(Larry Sparks & the Lonesome Ramblers - Silver Reflections)
N:solo de Randy Jones - Transcribed by Philippe Colleu
R:bluegrass
L:1/8
Q:1/4=200
M:4/4
K:C
"(100 bpm)""G"z2 ge dB A_B/z/ | Be dB ed Be | d_B/z/ =Bd _B/A/G AE | "C"(3GAG ^D/E/G D/=D/C DC | 
zG [GG,]E GA Bc | (3"G"c[gd][gd] (3[gd][gd][gd] (3[gd][gd][gd] (3[gd][gd][gd] | 
[gd]A/z/ Bd eB dA | "D"cd cA GD F^F | d2 dB de d2 | "G"(3[BG][BG][BG] (3[BG][BG][BG] (3[BG][BG][BG] (3[BG][BG][BG] | 
[B2G2] ge ga g^d/z/ | "C"eg ag ^de cA | c2 cc cc _b/z/=b | "G"ge d2 ec AF | "D"^Fa ^fd ^cd _B=B | 
"G"G2 GD F/E/D _B,/=B,/G | G,2 G,G, {_B,}=B,D EG | _B=B e_B AG E^F | GD FE DB, A,/B,/A, | 
G,8 | 


